assets/2023/icons/javaScript.svg

<!-- Copyright 2000-2023 JetBrains s.r.o. and contributors. Use of this source code is governed by the Apache 2.0 license. -->
<svg width="16" height="16" viewBox="0 0 16 16" fill="none" xmlns="http://www.w3.org/2000/svg">
<path d="M14 4C14 2.89543 13.1046 2 12 2H4C2.89543 2 2 2.89543 2 4V12C2 13.1046 2.89543 14 4 14H12C13.1046 14 14 13.1046 14 12V4Z" fill="#FFAF0F"/>
<path d="M4.21289 11H5.22179C5.37569 11 5.51107 10.9687 5.62792 10.906C5.74762 10.8404 5.83882 10.7492 5.90152 10.6324C5.96707 10.5127 5.99984 10.3759 5.99984 10.222L5.99989 6.00002H7.00024L7.00019 10.3584C7.00019 10.6805 6.92894 10.9655 6.78644 11.2134C6.64394 11.4614 6.44587 11.6552 6.19222 11.7948C5.93857 11.9316 5.64787 12 5.32012 12H4.21289V11Z" fill="black"/>
<path d="M10.1056 12.1026C9.68092 12.1026 9.30472 12.0257 8.97697 11.8718C8.64922 11.715 8.39272 11.4984 8.20747 11.222C8.02222 10.9427 7.92817 10.6235 7.92532 10.2644H8.9385C8.9385 10.4525 8.98837 10.6206 9.08812 10.7688C9.18787 10.917 9.3261 11.0324 9.5028 11.1151C9.68235 11.1949 9.88755 11.2348 10.1184 11.2348C10.3435 11.2348 10.5416 11.1977 10.7126 11.1236C10.8836 11.0495 11.0147 10.9455 11.1059 10.8116C11.2 10.6748 11.247 10.518 11.247 10.3413C11.247 10.119 11.18 9.92806 11.0461 9.76846C10.9121 9.60601 10.734 9.50626 10.5117 9.46921L9.49852 9.29821C9.20782 9.24691 8.9556 9.14431 8.74185 8.99041C8.5281 8.83651 8.3628 8.64414 8.24595 8.41329C8.13195 8.17959 8.07495 7.92451 8.07495 7.64806C8.07495 7.31746 8.16045 7.02106 8.33145 6.75886C8.5053 6.49381 8.74612 6.28719 9.05392 6.13899C9.36172 5.98794 9.70942 5.91241 10.097 5.91241C10.4932 5.91241 10.8451 5.98509 11.1529 6.13044C11.4636 6.27579 11.7058 6.47814 11.8797 6.73749C12.0535 6.99684 12.1419 7.29324 12.1447 7.62669H11.1316C11.1316 7.46424 11.0888 7.31889 11.0033 7.19064C10.9178 7.05954 10.7981 6.95836 10.6442 6.88711C10.4903 6.81586 10.3122 6.78024 10.1098 6.78024C9.9075 6.78024 9.72937 6.81444 9.57547 6.88284C9.42157 6.95124 9.30187 7.04814 9.21637 7.17354C9.13087 7.29894 9.08812 7.44429 9.08812 7.60959C9.08812 7.80339 9.15082 7.97154 9.27622 8.11404C9.40162 8.25369 9.5655 8.34061 9.76785 8.37481L10.7639 8.53726C11.0575 8.58856 11.3182 8.69829 11.5462 8.86644C11.7771 9.03459 11.9552 9.24406 12.0806 9.49486C12.206 9.74566 12.2687 10.0121 12.2687 10.2943C12.2687 10.6363 12.1775 10.9455 11.9951 11.222C11.8127 11.4956 11.5576 11.7107 11.2299 11.8675C10.9021 12.0242 10.5274 12.1026 10.1056 12.1026Z" fill="black"/>
</svg>

<svg xmlns="http://www.w3.org/2000/svg" width="16" height="16" fill="none" viewBox="0 0 16 16"><path fill="#FFAF0F" d="M14 4a2 2 0 0 0-2-2H4a2 2 0 0 0-2 2v8a2 2 0 0 0 2 2h8a2 2 0 0 0 2-2z"/><path fill="#000" d="M4.213 11h1.009q.231 0 .406-.094a.67.67 0 0 0 .274-.274.84.84 0 0 0 .098-.41V6h1v4.358q0 .483-.214.855-.213.372-.594.582A1.8 1.8 0 0 1 5.32 12H4.213zm5.893 1.103q-.637 0-1.129-.231a1.9 1.9 0 0 1-.77-.65 1.7 1.7 0 0 1-.282-.958h1.013q0 .283.15.505t.415.346q.27.12.615.12.339 0 .595-.111a.9.9 0 0 0 .393-.312.8.8 0 0 0 .141-.47.86.86 0 0 0-.735-.873L9.499 9.3a1.8 1.8 0 0 1-.757-.309 1.6 1.6 0 0 1-.496-.577 1.7 1.7 0 0 1-.171-.765q0-.495.256-.89a1.75 1.75 0 0 1 .723-.619 2.34 2.34 0 0 1 1.043-.227q.594 0 1.056.218.466.219.727.607.26.39.265.89h-1.013a.77.77 0 0 0-.129-.436.84.84 0 0 0-.359-.304 1.3 1.3 0 0 0-.534-.107q-.303 0-.535.103a.83.83 0 0 0-.359.29.76.76 0 0 0-.128.437q0 .29.188.504.189.21.492.26l.996.163q.44.077.782.33.347.252.535.628.188.375.188.8 0 .511-.274.927a1.86 1.86 0 0 1-.765.646 2.6 2.6 0 0 1-1.124.235"/></svg>
